X:2

T:Second to the White Cockcade

S:Thomas Calvert Collection, Kelso, Scotland (1799)

Z:Jack Campin May 2001

M:C

L:1/8

N:bars 7 and 15 are written |g/f/e/d/ c/B/A/G/| in the book

K:G

BA|G2B2 dBAB|d2G2 G2Bc|B2G2 G2F2|G2[F2A2] [F2A2]Bc|G2B2 dBAB|c2d2 e2f2|gfed cBAG|B2G2 G2||

GA|B2G2 d2G2|B2ge d2Bc|B2G2 B2AB|c2 A2 [F2A2]BA|G2B2 dBAB|c2d2 e2f2|gfed cBAG|B2G2 G2|]

 

WHITE COCKADE [2], THE. American, Reel. USA, southwestern Pa. G Major. Standard tuning. AABB'. Source for notated version: Levi Hall (Pa., 1944) [Bayard]. Bayard (Dance to the Fiddle), 1981; No. 175, pg. 127.

 

WHITE CREEK. Old‑Time, Breakdown. USA, Oklahoma. A Major. AEae tuning. AABB. Thede says the name possibly alludes to the Missouri White Creek. The tune was one in the repertoire of the Oklahoma Collins family, some members of whom contributed to Thede's book; the modern-day representative of this musical family, fiddler Earl Collins, recorded several albums. Source for notated version: Red McLaron (Ottawa County, Oklahoma) [Thede]. Thede (The Fiddle Book), 1967; pg. 111. Yodel-Ay-Hee 008, One Eyed Dog - "Traditional Mountain Tunes" (1993).

